X:342
T:Mug of Brown Ale, The
T:Jug of Brown Ale, The
R:jig
H:Also played in Ador, #122
Z:id:hn-jig-342
M:6/8
K:Edor
BEE cEE|dcd edB|AFE D2E|FEF AFA|BEE cEE|dcd edB|AFA dAF|FED E2A:|
Bcd efe|efe edB|AFA d2A|dfe dBA|Bcd ~e3|efe edB|AFF dFF|EFE E2A:|

